X:1016
T:Ruby, The
C:Joe Buchanan's Scottish Tome - Page 609.1
I:609 1
Z:Carl Allison
C:Phil Cunningham
R:Waltz
L:1/4
M:3/4
K:D
f | "D"A2 B | "D/F#"d2 B | "Em"e3 | "A"e2 f | "D"A2 B | "D/F#"d>e f | "G"g2 G | "Em/D"d>(B B) |
"A"e2 f | "Bm"d2 B | "A"e3 | "G"d2 B | "D"A2 f | "A"e2 c | "G/A"d3- | d2 :|
f/>g/ | "D"a2 d | "D/F#"f2 d | "G"B3- | B ((3a/g/f/) | "Em"g2 G | "G"d2 B | "A"B<(A A) | A2 f/<g/ |
"D"a2 d | "D7"f2 d | "G"B3 | "Em7"d2 B | "A"A2 f | "A7"e2 c | "D"d3- | d2 :|

